polaris-icons/icons/newicons/AbandonedCartMajor.svg

<svg width="20" height="20" viewBox="0 0 20 20" fill="none" xmlns="http://www.w3.org/2000/svg">
<path d="M12.7197 7.53033C13.0126 7.82322 13.4874 7.82322 13.7803 7.53033C14.0732 7.23744 14.0732 6.76256 13.7803 6.46967L12.3107 5L13.7803 3.53033C14.0732 3.23744 14.0732 2.76256 13.7803 2.46967C13.4874 2.17678 13.0126 2.17678 12.7197 2.46967L11.25 3.93934L9.78033 2.46967C9.48744 2.17678 9.01256 2.17678 8.71967 2.46967C8.42678 2.76256 8.42678 3.23744 8.71967 3.53033L10.1893 5L8.71967 6.46967C8.42678 6.76256 8.42678 7.23744 8.71967 7.53033C9.01256 7.82322 9.48744 7.82322 9.78033 7.53033L11.25 6.06066L12.7197 7.53033Z" fill="black"/>
<path d="M3 3.75C3 3.33579 3.33579 3 3.75 3H5.75C6.1291 3 6.44859 3.2829 6.49448 3.65921L7.29824 10.25H15.0995L15.7575 5.64393C15.8161 5.23388 16.196 4.94896 16.6061 5.00754C17.0161 5.06612 17.301 5.44602 17.2425 5.85607L16.4925 11.1061C16.4397 11.4756 16.1232 11.75 15.75 11.75H7.48117L7.66409 13.25H15.25C15.6642 13.25 16 13.5858 16 14C16 14.4142 15.6642 14.75 15.25 14.75H7C6.6209 14.75 6.30141 14.4671 6.25552 14.0908L5.89107 11.1023C5.89011 11.0953 5.88924 11.0882 5.88848 11.0811L5.08591 4.5H3.75C3.33579 4.5 3 4.16421 3 3.75Z" fill="black"/>
<path d="M9 16.5C9 17.0523 8.55228 17.5 8 17.5C7.44772 17.5 7 17.0523 7 16.5C7 15.9477 7.44772 15.5 8 15.5C8.55228 15.5 9 15.9477 9 16.5Z" fill="black"/>
<path d="M14 17.5C14.5523 17.5 15 17.0523 15 16.5C15 15.9477 14.5523 15.5 14 15.5C13.4477 15.5 13 15.9477 13 16.5C13 17.0523 13.4477 17.5 14 17.5Z" fill="black"/>
</svg>

<svg viewBox="0 0 20 20" fill="none" xmlns="http://www.w3.org/2000/svg"><path d="M12.72 7.53a.75.75 0 1 0 1.06-1.06l-1.47-1.47 1.47-1.47a.75.75 0 0 0-1.06-1.06l-1.47 1.47-1.47-1.47a.75.75 0 0 0-1.06 1.06l1.47 1.47-1.47 1.47a.75.75 0 0 0 1.06 1.06l1.47-1.47 1.47 1.47Z" fill="#000"/><path d="M3 3.75a.75.75 0 0 1 .75-.75h2a.75.75 0 0 1 .744.66l.804 6.59h7.802l.658-4.606a.75.75 0 0 1 1.485.212l-.75 5.25a.75.75 0 0 1-.743.644h-8.269l.183 1.5h7.586a.75.75 0 0 1 0 1.5h-8.25a.75.75 0 0 1-.744-.66l-.365-2.988a.722.722 0 0 1-.003-.02l-.802-6.582h-1.336a.75.75 0 0 1-.75-.75Z" fill="#000"/><path d="M9 16.5a1 1 0 1 1-2 0 1 1 0 0 1 2 0Z" fill="#000"/><path d="M14 17.5a1 1 0 1 0 0-2 1 1 0 0 0 0 2Z" fill="#000"/></svg>
